Origami/16x16/mimetypes/rpm.svg

<?xml version="1.0" encoding="UTF-8" standalone="no"?>
<svg
   xmlns:dc="http://purl.org/dc/elements/1.1/"
   xmlns:cc="http://creativecommons.org/ns#"
   xmlns:rdf="http://www.w3.org/1999/02/22-rdf-syntax-ns#"
   xmlns:svg="http://www.w3.org/2000/svg"
   xmlns="http://www.w3.org/2000/svg"
   viewBox="0 0 16 16"
   version="1.1"
   width="16px"
   height="16px"
   id="svg2">
  <defs
     id="defs12" />
  <metadata
     id="metadata21">
    <rdf:RDF>
      <cc:Work
         rdf:about="">
        <dc:format>image/svg+xml</dc:format>
        <dc:type
           rdf:resource="http://purl.org/dc/dcmitype/StillImage" />
      </cc:Work>
    </rdf:RDF>
  </metadata>
  <path
     d="m14 14.352v-11.703c0-0.3599-0.289-0.649-0.648-0.649h-11.704c-0.3589 0-0.648 0.2891-0.648 0.6484v11.703c0 0.36 0.2891 0.649 0.6484 0.649h11.703c0.36 0 0.649-0.289 0.649-0.648z"
     fill="#d1d1d1"
     id="path5" />
  <path
     d="m2 6v5h1v-1l1 1h1l-1-2h1v-3h-3zm1 1h1v1h-1v-1z"
     fill="#b09961"
     id="path4149" />
  <path
     d="m10 6v5h1v-2.1429l0.5 1.1429 0.5-1.1429v2.1429h1v-5h-1l-0.5 2-0.5-2z"
     fill="#b09961"
     id="path11" />
  <path
     d="m1.6484 2c-0.3593 0-0.6484 0.2891-0.6484 0.6484v0.5c0-0.3593 0.2891-0.6484 0.6484-0.6484h11.704c0.359 0 0.648 0.2891 0.648 0.6484v-0.5c0-0.3593-0.289-0.6484-0.648-0.6484z"
     fill="#fff"
     fill-opacity=".2"
     id="path13" />
  <path
     d="m6 6v5h1v-2h1 1v-3zm1 1h1v1h-1z"
     fill="#b09961"
     id="path4152" />
</svg>

<svg xmlns="http://www.w3.org/2000/svg" width="16" height="16" version="1.1" viewBox="0 0 16 16">
 <path fill="#d1d1d1" d="m14 14.352v-11.703c0-0.3599-0.289-0.649-0.648-0.649h-11.704c-0.3589 0-0.648 0.2891-0.648 0.6484v11.703c0 0.36 0.2891 0.649 0.6484 0.649h11.703c0.36 0 0.649-0.289 0.649-0.648z"/>
 <path style="fill:#987d3b" d="M 2 6 L 2 11 L 3 11 L 3 10 L 4 11 L 5 11 L 4 9 L 5 9 L 5 6 L 2 6 z M 6 6 L 6 11 L 7 11 L 7 9 L 9 9 L 9 6 L 6 6 z M 10 6 L 10 11 L 11 11 L 11 8.8574219 L 11.5 10 L 12 8.8574219 L 12 11 L 13 11 L 13 6 L 12 6 L 11.5 8 L 11 6 L 10 6 z M 3 7 L 4 7 L 4 8 L 3 8 L 3 7 z M 7 7 L 8 7 L 8 8 L 7 8 L 7 7 z"/>
</svg>
